actions/22x22-dark/edit-table-insert-row-above.svg

<svg viewBox="0 0 22 22" xmlns="http://www.w3.org/2000/svg"><path d="m3 3v6 10h1 15v-1-9h-1v4h-2v-4h-1v4h-2v-4-6h-1v6 4h-2v-4h-1v4h-2v-4h-1v4h-1-1v-4-6zm13.5 0-2.5 5h5zm-12.5 11h1 1v1 3h-2zm3 0h2v4h-2v-3zm3 0h2v4h-2zm3 0h2v1 3h-2zm3 0h1.099609.900391v4h-2v-3z" fill="#f2f2f2"/><path d="m3 3v6h1 5.2929688 2.7070312 1v-6h-1-8zm1 1h .2929688l4 4h-4.2929688zm1.7070312 0h2.5859376l3.7070312 3.7070312v.2929688h-2.2929688zm4 0h2.2929688v2.2929688z" fill="#3daee9"/></svg>

<svg xmlns="http://www.w3.org/2000/svg" viewBox="0 0 22 22">
  <defs id="defs3051">
    <style type="text/css" id="current-color-scheme">
      .ColorScheme-Text {
        color:#f2f2f2;
      }
      .ColorScheme-Highlight {
        color:#3daee9;
      }
      </style>
  </defs>
 <path 
     style="fill:currentColor;fill-opacity:1;stroke:none" 
     d="M 3 3 L 3 9 L 3 19 L 4 19 L 19 19 L 19 18 L 19 9 L 18 9 L 18 13 L 16 13 L 16 9 L 15 9 L 15 13 L 13 13 L 13 9 L 13 3 L 12 3 L 12 9 L 12 13 L 10 13 L 10 9 L 9 9 L 9 13 L 7 13 L 7 9 L 6 9 L 6 13 L 5 13 L 4 13 L 4 9 L 4 3 L 3 3 z M 16.5 3 L 14 8 L 19 8 L 16.5 3 z M 4 14 L 5 14 L 6 14 L 6 15 L 6 18 L 4 18 L 4 14 z M 7 14 L 9 14 L 9 18 L 7 18 L 7 15 L 7 14 z M 10 14 L 12 14 L 12 18 L 10 18 L 10 14 z M 13 14 L 15 14 L 15 15 L 15 18 L 13 18 L 13 14 z M 16 14 L 17.099609 14 L 18 14 L 18 18 L 16 18 L 16 15 L 16 14 z "
     class="ColorScheme-Text"
     />
 <path 
     style="fill:currentColor;fill-opacity:1;stroke:none" 
     d="M 3 3 L 3 9 L 4 9 L 9.2929688 9 L 12 9 L 13 9 L 13 3 L 12 3 L 4 3 L 3 3 z M 4 4 L 4.2929688 4 L 8.2929688 8 L 4 8 L 4 4 z M 5.7070312 4 L 8.2929688 4 L 12 7.7070312 L 12 8 L 9.7070312 8 L 5.7070312 4 z M 9.7070312 4 L 12 4 L 12 6.2929688 L 9.7070312 4 z "
     class="ColorScheme-Highlight"
     />
</svg>
